public/img/anti-feature-7.svg

<svg width="88" height="88" viewBox="0 0 88 88" fill="none" xmlns="http://www.w3.org/2000/svg">
<path d="M43.7871 44.9472C46.3749 44.9472 48.4804 42.8423 48.4804 40.2539C48.4804 37.6655 46.3749 35.5605 43.7871 35.5605C41.1993 35.5605 39.0938 37.6655 39.0938 40.2539C39.0938 42.8423 41.1993 44.9472 43.7871 44.9472ZM43.7871 37.9072C45.0813 37.9072 46.1337 38.9603 46.1337 40.2539C46.1337 41.5475 45.0813 42.6006 43.7871 42.6006C42.4929 42.6006 41.4404 41.5475 41.4404 40.2539C41.4404 38.9603 42.4929 37.9072 43.7871 37.9072Z" fill="black"/>
<path d="M34.8299 49.2142C38.1745 53.8641 40.4434 59.0684 41.5731 64.6828L42.6358 69.964C42.7458 70.5116 43.2266 70.9047 43.7845 70.9059H43.7863C44.3436 70.9059 44.8244 70.514 44.9356 69.9675L46.0555 64.4892C47.2013 58.8871 49.481 53.6954 52.8315 49.0605L57.0573 43.2143C57.2825 42.9028 57.3409 42.5004 57.213 42.1372L53.1729 30.6664V27.1473C54.5328 26.6812 55.5196 25.4043 55.5196 23.8878V17.9607C55.5196 17.3121 54.9942 16.7874 54.3463 16.7874C53.6983 16.7874 53.1729 17.3121 53.1729 17.9607V23.8881C53.1729 24.5011 52.674 25.0007 52.0603 25.0007H51.9996H35.5729H35.5122C34.8986 25.0007 34.3996 24.5011 34.3996 23.8881V17.9607C34.3996 17.3121 33.8742 16.7874 33.2263 16.7874C32.5783 16.7874 32.0529 17.3121 32.0529 17.9607V23.8881C32.0529 25.4043 33.0397 26.6812 34.3996 27.1476V30.667L30.3595 42.1378C30.2322 42.4998 30.2897 42.9011 30.5135 43.2126L34.8299 49.2142ZM50.8263 27.3474V29.694H36.7463V27.3474H50.8263ZM36.4037 32.0407H51.1686L54.7954 42.3382L50.9292 47.6856C48.3127 51.3062 46.3151 55.2469 44.9593 59.4456V49.6404C44.9593 48.9918 44.434 48.4671 43.786 48.4671C43.138 48.4671 42.6126 48.9918 42.6126 49.6404V59.4242C41.2683 55.2947 39.3027 51.4148 36.7351 47.8437L32.7763 42.339L36.4037 32.0407Z" fill="black"/>
<path d="M64.7657 14.5826C64.9948 14.8117 65.2952 14.9264 65.5953 14.9264C65.8954 14.9264 66.1957 14.8117 66.4248 14.5826L67.2544 13.7531L68.0839 14.5826C68.313 14.8117 68.6134 14.9264 68.9135 14.9264C69.2135 14.9264 69.5139 14.8117 69.743 14.5826C70.2012 14.1245 70.2012 13.3817 69.743 12.9235L68.9135 12.094L69.743 11.2645C70.2012 10.8063 70.2012 10.0635 69.743 9.60536C69.2848 9.14717 68.5421 9.14717 68.0839 9.60536L67.2544 10.4349L66.4248 9.60536C65.9666 9.14717 65.2239 9.14717 64.7657 9.60536C64.3075 10.0635 64.3075 10.8063 64.7657 11.2645L65.5953 12.094L64.7657 12.9235C64.3073 13.3817 64.3073 14.1242 64.7657 14.5826Z" fill="black"/>
<path d="M23.8413 19.134C24.4893 19.134 25.0146 18.6087 25.0146 17.9607C25.0146 17.3127 24.4893 16.7874 23.8413 16.7874C23.1933 16.7874 22.668 17.3127 22.668 17.9607C22.668 18.6087 23.1933 19.134 23.8413 19.134Z" fill="black"/>
<path d="M78.7793 48.2633C78.9567 47.7018 78.6904 47.0958 78.1565 46.8459C78.0677 46.8051 77.2035 46.4118 75.9099 46.0554C78.522 42.6946 78.6957 38.1312 78.7021 37.9083C78.7194 37.3193 78.2976 36.8095 77.7162 36.7156C77.5564 36.691 75.0792 36.3132 72.2729 36.8767C72.558 36.1903 72.7791 35.4983 72.8944 34.7999C73.736 29.702 69.9124 24.9708 69.749 24.7725C69.3762 24.3164 68.7229 24.2076 68.2222 24.5206C68.004 24.6558 62.8627 27.9077 62.0214 33.0055C61.497 36.1815 62.7624 39.1937 63.8785 41.1194C63.758 42.631 63.0094 49.9039 59.319 57.4288C55.7271 64.7548 50.5914 70.0081 44.0029 73.1679C37.4146 70.0084 32.2789 64.7551 28.6867 57.4288C24.9954 49.9015 24.2474 42.6272 24.1272 41.1183C25.2134 39.2359 26.5108 36.1923 25.9849 33.0052C25.1427 27.9074 20.002 24.6555 19.7835 24.5203C19.2822 24.2064 18.6289 24.3164 18.2567 24.7723C18.0933 24.9705 14.2697 29.7017 15.1113 34.7996C15.2266 35.4974 15.4451 36.1897 15.7302 36.8758C12.9259 36.3132 10.4505 36.6898 10.2898 36.7153C9.70837 36.8092 9.28656 37.3193 9.30386 37.908C9.31032 38.1307 9.48397 42.6932 12.0952 46.0539C10.8019 46.4103 9.93805 46.8045 9.84917 46.8456C9.3153 47.0955 9.04866 47.7015 9.22701 48.263C9.28568 48.4501 10.5382 52.3042 13.5381 54.8609C12.9682 55.134 12.6138 55.3429 12.5602 55.3751C12.0553 55.6787 11.8538 56.3103 12.0894 56.8497C12.1574 57.0061 13.5991 60.2577 16.441 62.5058C14.5912 63.8223 13.4314 65.2335 13.3445 65.3414C12.9755 65.8008 13.0037 66.462 13.4105 66.8882C13.5842 67.0692 17.6187 71.2286 22.6077 71.2286C22.7327 71.2286 22.8585 71.2263 22.9852 71.2207C27.3579 71.0353 30.7788 67.635 31.8237 66.4749C34.3079 69.4557 37.4084 72.1867 41.2596 74.3429C38.5562 75.3453 35.6376 76.0343 32.5027 76.3998C31.8589 76.4743 31.398 77.0575 31.4731 77.7016C31.5423 78.2985 32.0495 78.7386 32.6368 78.7386C32.6825 78.7386 32.7283 78.7362 32.7743 78.7306C37.0421 78.2334 40.7507 77.1663 44.0029 75.7172C47.2547 77.1666 50.9634 78.2334 55.2311 78.7306C55.2774 78.7365 55.3226 78.7386 55.3686 78.7386C55.9559 78.7386 56.4628 78.2985 56.5323 77.7016C56.6074 77.0578 56.1469 76.4743 55.5027 76.3998C52.3678 76.0343 49.4495 75.3453 46.7461 74.3429C50.5976 72.1867 53.6978 69.4554 56.1824 66.4749C57.2272 67.635 60.6483 71.0353 65.0205 71.2207C65.1472 71.2266 65.2725 71.2286 65.398 71.2286C70.3876 71.2286 74.4221 67.0692 74.5955 66.8882C75.0023 66.462 75.0302 65.7996 74.6609 65.3414C74.5743 65.2335 73.4145 63.8226 71.5648 62.5058C74.4066 60.2577 75.848 57.0058 75.9161 56.8497C76.1516 56.31 75.9498 55.6787 75.4453 55.3751C75.3919 55.3432 75.0372 55.1343 74.4673 54.8615C77.4678 52.3051 78.72 48.4504 78.7793 48.2633ZM17.4274 34.4171C16.9478 31.5136 18.5081 28.5894 19.435 27.1594C20.7729 28.216 23.19 30.4835 23.6696 33.388C24.1195 36.1146 22.7723 38.8549 21.8386 40.3632C21.457 39.8921 21.0269 39.446 20.5391 39.0429C20.0891 38.671 19.611 38.3598 19.1203 38.0881C18.2015 36.8761 17.629 35.6417 17.4274 34.4171ZM11.7608 38.935C13.4619 38.8593 16.7757 38.9775 19.0437 40.8507C21.2211 42.6506 21.9935 45.6984 22.2642 47.432C21.6825 46.9884 21.0486 46.5904 20.3438 46.2809C18.5031 45.4737 16.5448 45.3672 14.8212 45.5408C12.7121 43.6456 11.9928 40.57 11.7608 38.935ZM11.8708 48.5783C13.4853 48.0351 16.7061 47.2469 19.4007 48.4305C22.3088 49.7076 23.9371 52.9801 24.5302 54.4089C24.0307 54.1382 23.503 53.9008 22.9392 53.7207C20.5476 52.9548 18.0854 53.2954 16.1561 53.8607C13.8822 52.5236 12.4997 49.9951 11.8708 48.5783ZM14.7496 56.8858C16.2931 56.1754 19.4063 55.0548 22.2249 55.9554C25.4155 56.9759 27.4254 60.358 28.0622 61.5797C26.4985 60.7637 24.5901 60.1192 22.5171 60.211C21.1208 60.2703 19.8254 60.6634 18.6682 61.2019C16.7539 59.9928 15.4216 58.0533 14.7496 56.8858ZM22.8855 68.877C19.9263 68.9802 17.2268 67.0976 15.9206 66.0055C17.1253 64.8058 19.6612 62.6815 22.6168 62.5554C25.5598 62.4386 28.2749 64.3347 29.5817 65.4268C28.377 66.6265 25.8411 68.7508 22.8855 68.877ZM76.2455 38.935C76.0131 40.5703 75.2939 43.6471 73.184 45.542C71.4606 45.3687 69.5023 45.4746 67.6625 46.2809C66.9577 46.5904 66.3238 46.9884 65.7421 47.432C66.0125 45.6984 66.7852 42.6506 68.9626 40.8507C71.2306 38.9775 74.5477 38.8608 76.2455 38.935ZM64.3373 33.388C64.8163 30.4823 67.2363 28.2122 68.5733 27.1571C69.5009 28.5824 71.0608 31.4987 70.5786 34.4171C70.3762 35.6455 69.7962 36.8816 68.8743 38.0949C68.3879 38.365 67.9136 38.6739 67.4672 39.0426C66.9797 39.4457 66.5499 39.8912 66.1686 40.362C65.2431 38.8713 63.8838 36.1319 64.3373 33.388ZM65.1205 68.877C62.1793 68.752 59.6337 66.623 58.4249 65.4236C59.7267 64.3315 62.4283 62.45 65.3892 62.5556C68.3293 62.6806 70.8737 64.8073 72.0837 66.007C70.7757 67.0997 68.0582 68.972 65.1205 68.877ZM69.3366 61.2013C68.1797 60.6631 66.8846 60.27 65.4886 60.211C63.4209 60.1136 61.5084 60.7628 59.9394 61.5844C60.5674 60.3706 62.567 56.9835 65.7817 55.9556C68.5851 55.0607 71.7085 56.1803 73.257 56.8896C72.5882 58.0556 71.2609 59.9899 69.3366 61.2013ZM65.0677 53.721C64.5025 53.9014 63.9739 54.1393 63.4731 54.411C64.0604 52.9862 65.6796 49.7147 68.6053 48.4308C71.3005 47.2472 74.5207 48.0354 76.1358 48.5786C75.506 49.9954 74.1235 52.5248 71.8493 53.8618C69.9206 53.2969 67.4593 52.9563 65.0677 53.721Z" fill="black"/>
</svg>

<svg width="88" height="88" fill="none" xmlns="http://www.w3.org/2000/svg"><path d="M43.787 44.947a4.698 4.698 0 004.693-4.693 4.698 4.698 0 00-4.693-4.694 4.698 4.698 0 00-4.693 4.694 4.698 4.698 0 004.693 4.693zm0-7.04a2.35 2.35 0 012.347 2.347 2.35 2.35 0 01-2.347 2.347 2.35 2.35 0 01-2.347-2.347 2.35 2.35 0 012.347-2.347z" fill="#000"/><path d="M34.83 49.214a39.743 39.743 0 016.743 15.469l1.063 5.281c.11.548.59.94 1.148.942h.002c.558 0 1.038-.392 1.15-.939l1.12-5.478a39.767 39.767 0 016.776-15.429l4.225-5.846c.225-.311.284-.714.156-1.077l-4.04-11.47v-3.52c1.36-.466 2.347-1.743 2.347-3.26v-5.926a1.173 1.173 0 10-2.347 0v5.927c0 .613-.499 1.113-1.113 1.113H35.513c-.614 0-1.113-.5-1.113-1.113v-5.927a1.173 1.173 0 10-2.347 0v5.927c0 1.516.987 2.793 2.347 3.26v3.519l-4.04 11.47c-.128.363-.07.764.154 1.076l4.316 6.001zm15.996-21.867v2.347h-14.08v-2.347h14.08zm-14.422 4.694h14.765l3.626 10.297-3.866 5.348a42.097 42.097 0 00-5.97 11.76V49.64a1.173 1.173 0 10-2.346 0v9.784a42.094 42.094 0 00-5.878-11.58l-3.959-5.505 3.628-10.298zm28.362-17.458a1.17 1.17 0 001.659 0l.83-.83.829.83a1.17 1.17 0 001.659 0 1.175 1.175 0 000-1.66l-.83-.829.83-.83a1.173 1.173 0 10-1.66-1.659l-.829.83-.83-.83a1.173 1.173 0 10-1.658 1.66l.83.829-.83.83a1.173 1.173 0 000 1.659zm-40.925 4.551a1.173 1.173 0 100-2.347 1.173 1.173 0 000 2.347z" fill="#000"/><path d="M78.78 48.263a1.174 1.174 0 00-.624-1.417c-.088-.04-.953-.434-2.246-.79 2.612-3.361 2.786-7.925 2.792-8.148a1.173 1.173 0 00-.986-1.192c-.16-.025-2.637-.403-5.443.16a9.46 9.46 0 00.621-2.076c.842-5.098-2.982-9.83-3.145-10.027a1.17 1.17 0 00-1.527-.252c-.218.135-5.36 3.387-6.2 8.484-.525 3.176.74 6.189 1.857 8.114-.121 1.512-.87 8.785-4.56 16.31-3.592 7.326-8.728 12.58-15.316 15.739-6.588-3.16-11.724-8.413-15.316-15.74-3.692-7.526-4.44-14.8-4.56-16.31 1.086-1.882 2.384-4.926 1.858-8.113-.842-5.098-5.983-8.35-6.201-8.485a1.169 1.169 0 00-1.527.252c-.164.199-3.987 4.93-3.146 10.028a9.45 9.45 0 00.62 2.076c-2.805-.563-5.28-.186-5.441-.16a1.173 1.173 0 00-.986 1.192c.006.223.18 4.785 2.791 8.146-1.293.356-2.157.75-2.246.792-.534.25-.8.856-.622 1.417.059.187 1.311 4.041 4.311 6.598-.57.273-.924.482-.978.514a1.173 1.173 0 00-.47 1.475c.067.156 1.51 3.408 4.351 5.656-1.85 1.316-3.01 2.728-3.096 2.835-.37.46-.341 1.121.066 1.547.173.181 4.208 4.34 9.197 4.34.125 0 .25-.002.377-.007 4.373-.186 7.794-3.586 8.839-4.746 2.484 2.98 5.584 5.712 9.436 7.868-2.704 1.002-5.622 1.691-8.757 2.057a1.173 1.173 0 10.271 2.33c4.268-.497 7.977-1.564 11.229-3.013 3.252 1.45 6.96 2.516 11.228 3.014a1.173 1.173 0 10.272-2.33c-3.135-.367-6.053-1.056-8.757-2.058 3.852-2.156 6.952-4.888 9.436-7.868 1.045 1.16 4.466 4.56 8.838 4.746.127.006.252.008.378.008 4.99 0 9.024-4.16 9.198-4.34a1.174 1.174 0 00.065-1.548c-.087-.107-1.246-1.518-3.096-2.835 2.842-2.248 4.283-5.5 4.351-5.656a1.174 1.174 0 00-.47-1.475c-.054-.032-.409-.24-.979-.514 3-2.556 4.253-6.41 4.312-6.598zM17.426 34.417c-.48-2.903 1.081-5.828 2.008-7.258 1.338 1.057 3.755 3.325 4.235 6.229.45 2.727-.898 5.467-1.831 6.975a9.293 9.293 0 00-1.3-1.32 9.229 9.229 0 00-1.419-.955c-.919-1.212-1.491-2.446-1.693-3.67zm-5.666 4.518c1.7-.076 5.015.042 7.283 1.916 2.177 1.8 2.95 4.847 3.22 6.581a9.403 9.403 0 00-1.92-1.151c-1.84-.807-3.8-.914-5.523-.74-2.109-1.895-2.828-4.971-3.06-6.606zm.11 9.643c1.614-.543 4.835-1.331 7.53-.148 2.908 1.278 4.536 4.55 5.13 5.979a9.236 9.236 0 00-1.592-.688c-2.391-.766-4.854-.426-6.783.14-2.274-1.337-3.656-3.866-4.285-5.283zm2.879 8.308c1.543-.71 4.656-1.831 7.475-.93 3.19 1.02 5.2 4.402 5.837 5.624-1.564-.816-3.472-1.46-5.545-1.369-1.396.06-2.692.452-3.849.99-1.914-1.208-3.246-3.148-3.918-4.315zm8.136 11.991c-2.96.103-5.66-1.78-6.965-2.871 1.204-1.2 3.74-3.325 6.696-3.45 2.943-.117 5.658 1.779 6.965 2.87-1.205 1.2-3.74 3.325-6.697 3.451zm53.36-29.942c-.233 1.635-.952 4.712-3.062 6.607-1.723-.173-3.682-.067-5.522.739a9.403 9.403 0 00-1.92 1.151c.27-1.734 1.043-4.781 3.22-6.581 2.269-1.873 5.586-1.99 7.284-1.916zm-11.909-5.547c.48-2.906 2.9-5.176 4.236-6.23.928 1.424 2.488 4.34 2.006 7.26-.203 1.227-.783 2.464-1.705 3.677-.486.27-.96.579-1.407.948a9.296 9.296 0 00-1.298 1.319c-.926-1.49-2.285-4.23-1.832-6.974zm.784 35.489c-2.942-.125-5.487-2.254-6.696-3.453 1.302-1.093 4.003-2.974 6.964-2.868 2.94.125 5.485 2.251 6.695 3.451-1.308 1.093-4.026 2.965-6.963 2.87zm4.216-7.676c-1.157-.538-2.452-.931-3.848-.99-2.068-.097-3.98.552-5.55 1.373.628-1.213 2.628-4.6 5.843-5.628 2.803-.895 5.927.224 7.475.934-.669 1.166-1.996 3.1-3.92 4.311zm-4.27-7.48a9.22 9.22 0 00-1.594.69c.587-1.425 2.207-4.696 5.132-5.98 2.695-1.184 5.916-.396 7.53.148-.629 1.416-2.011 3.946-4.286 5.283-1.928-.565-4.39-.906-6.781-.141z" fill="#000"/></svg>
